svgs/thin/square-1.svg

<svg xmlns="http://www.w3.org/2000/svg" viewBox="0 0 448 512"><!--! Font Awesome Pro 6.0.0-alpha3 by @fontawesome - https://fontawesome.com License - https://fontawesome.com/license (Commercial License) --><path d="M288 368h-56V136c0-2.844-1.516-5.5-3.984-6.906c-2.438-1.406-5.484-1.469-7.984-.0313l-56 32C160.2 163.3 158.9 168.1 161 171.1c2.219 3.875 7.094 5.156 10.92 2.969L216 149.8V368H160c-4.422 0-8 3.594-8 8S155.6 384 160 384h128c4.422 0 8-3.594 8-8S292.4 368 288 368zM384 32H64C28.65 32 0 60.65 0 96v320c0 35.35 28.65 64 64 64h320c35.35 0 64-28.65 64-64V96C448 60.65 419.3 32 384 32zM432 416c0 26.47-21.53 48-48 48H64c-26.47 0-48-21.53-48-48V96c0-26.47 21.53-48 48-48h320c26.47 0 48 21.53 48 48V416z"/></svg>

<svg xmlns="http://www.w3.org/2000/svg" viewBox="0 0 448 512"><!-- Font Awesome Pro 6.0.0-alpha2 by @fontawesome - https://fontawesome.com License - https://fontawesome.com/license (Commercial License) --><path d="M288 368H232V136C232 133.156 230.484 130.5 228.016 129.094C225.578 127.688 222.531 127.625 220.031 129.062L164.031 161.062C160.188 163.25 158.859 168.125 161.047 171.969C163.266 175.844 168.141 177.125 171.969 174.937L216 149.781V368H160C155.578 368 152 371.594 152 376S155.578 384 160 384H288C292.422 384 296 380.406 296 376S292.422 368 288 368ZM384 32H64C28.654 32 0 60.654 0 96V416C0 451.346 28.654 480 64 480H384C419.348 480 448 451.346 448 416V96C448 60.654 419.348 32 384 32ZM432 416C432 442.467 410.467 464 384 464H64C37.533 464 16 442.467 16 416V96C16 69.533 37.533 48 64 48H384C410.467 48 432 69.533 432 96V416Z"/></svg>
